X: 22
T:Logie O'Buchan
% Nottingham Music Database
S:Kevin Briggs
M:3/4
L:1/4
K:D
A/2G/2|"D"F3/2G/2A|"D"Afe|"G"dBB|"G"B2A/2G/2|"D"F3/2G/2A|"A7"Ade|"D"fd"G"d|\
"D"d2A/2G/2|
"D"F3/2G/2A|"D"Afe|"G"dBB|"G"B2A/2G/2|"D"F3/2G/2A|"A7"Ade|"D"fd"G"d|\
"D"d2d/2e/2||
"D"f3/2e/2f|"A"afe|"Bm"dBc|"D"d2d/2e/2|"Bm"f3/2g/2f|"Em"ede|"F#7"fe/2d/2c/2d/2\
|"Bm"B2"A7"A/2G/2|
"D"F3/2G/2A|"D"Afe|"G"dBB|"G"B2A/2G/2|"D"F3/2G/2A|"A7"Ade|"D"fd"G"d|"D"d2||


